modules/hawcons-filled/icons/icon-18-weights.svg

<?xml version="1.0" encoding="UTF-8" standalone="no"?>
<svg width="32px" height="32px" viewBox="0 0 32 32" version="1.1" xmlns="http://www.w3.org/2000/svg" xmlns:xlink="http://www.w3.org/1999/xlink" xmlns:sketch="http://www.bohemiancoding.com/sketch/ns">
    <!-- Generator: Sketch 3.0.3 (7891) - http://www.bohemiancoding.com/sketch -->
    <title>icon 18 weights</title>
    <desc>Created with Sketch.</desc>
    <defs></defs>
    <g id="Page-1" stroke="none" stroke-width="1" fill="none" fill-rule="evenodd" sketch:type="MSPage">
        <g id="icon-18-weights" sketch:type="MSArtboardGroup" fill="#929292">
            <path d="M23,17 L10,17 L10,20.4935615 C10,21.3284594 9.32842712,22 8.5,22 C7.66579723,22 7,21.3255445 7,20.4935615 L7,19.9146719 C6.84361054,19.9699401 6.67531771,20 6.5,20 C5.66579723,20 5,19.3276769 5,18.4983244 L5,17 L3,17 L3,16 L5,16 L5,14.5016756 C5,13.6711894 5.67157288,13 6.5,13 C6.67568467,13 6.84390003,13.0298196 7,13.0846457 L7,13.0846457 L7,12.5064385 C7,11.6715406 7.67157288,11 8.5,11 C9.33420277,11 10,11.6744555 10,12.5064385 L10,16 L23,16 L23,12.5064385 C23,11.6715406 23.6715729,11 24.5,11 C25.3342028,11 26,11.6744555 26,12.5064385 L26,13.0853281 C26.1563895,13.0300599 26.3246823,13 26.5,13 C27.3342028,13 28,13.6723231 28,14.5016756 L28,16 L30,16 L30,17 L28,17 L28,18.4983244 C28,19.3288106 27.3284271,20 26.5,20 C26.3243153,20 26.1561,19.9701804 26,19.9153543 L26,20.4935615 C26,21.3284594 25.3284271,22 24.5,22 C23.6657972,22 23,21.3255445 23,20.4935615 L23,17 L23,17 Z" id="weights" sketch:type="MSShapeGroup"></path>
        </g>
    </g>
</svg>

<svg width="32" height="32" xmlns="http://www.w3.org/2000/svg"><path d="M23 17H10v3.494a1.5 1.5 0 1 1-3 0v-.58a1.497 1.497 0 0 1-2-1.416V17H3v-1h2v-1.498a1.5 1.5 0 0 1 2-1.417v-.579a1.5 1.5 0 1 1 3 0V16h13v-3.494a1.5 1.5 0 1 1 3 0v.58a1.497 1.497 0 0 1 2 1.416V16h2v1h-2v1.498a1.5 1.5 0 0 1-2 1.417v.579a1.5 1.5 0 1 1-3 0V17z" fill="#929292" fill-rule="evenodd"/></svg>
